X: 8974
T: Cutting Bracken
R: strathspey
M: 4/4
K: Adorian
[M:2/4]
|:A2 aa/a/|ge g g/g/|ed BA|GA B/B/G|
A2 aa/a/|ge gg/g/|ed BG|1 A2 AG:|2 A2 A2||
|:ed BA|GA Bd|ed BA|B2 Bg/f/|
ed BA|GA Bd|ed GB|1 A2 Ag/f/:|2 A2 A2||

